public/images/logo-vector.svg

<svg xmlns="http://www.w3.org/2000/svg" width="1405" height="1426" fill="none"><g filter="url(#a)"><path fill="#D53DFB" fill-opacity=".2" d="M280.895 975.399c-160.712-257.425-79.022-574.676 180.028-736.402 145.237-90.672 337.575-106.845 495.332-39.442 17.564 7.336 25.146 27.988 18.24 45.287L912.449 401.65c-7.065 17.989-27.077 27.53-45.066 20.46-93.233-36.843-186.477-45.341-282.877 14.842-147.361 91.998-177.992 257.53-87.294 402.81 90.699 145.28 253.665 191.718 401.026 99.722 87.907-54.88 131.882-136.646 142.112-246.937 1.97-19.531 18.27-35.02 38.22-33.309l166.48 12.367c18.58 1.391 33.8 17.272 33.11 36.008-8.29 175.79-100.64 333.217-255.65 429.987-259.474 161.99-581.169 94.8-741.615-162.201"/></g><g filter="url(#b)"><path fill="#2E98A4" fill-opacity=".5" d="M390.337 907.228c-118.996-190.607-58.511-425.51 133.298-545.257 107.539-67.136 249.952-79.112 366.761-29.204 13.005 5.432 18.619 20.723 13.505 33.532L857.96 482.404c-5.231 13.32-20.048 20.385-33.368 15.15-69.033-27.28-138.073-33.572-209.451 10.989-109.111 68.118-131.792 190.684-64.635 298.254s187.821 141.956 296.932 73.838c65.089-40.636 97.649-101.178 105.224-182.84 1.459-14.462 13.528-25.931 28.302-24.664l123.266 9.157c13.76 1.03 25.03 12.789 24.51 26.662-6.14 130.161-74.52 246.723-189.286 318.38-192.124 119.94-430.317 70.19-549.117-120.102"/></g><g filter="url(#c)"><path fill="#F8FFAA" fill-opacity=".3" d="M457.939 865.118c-93.229-149.332-45.841-333.37 104.434-427.187 84.253-52.599 195.828-61.981 287.342-22.88 10.189 4.255 14.587 16.236 10.581 26.271l-35.992 90.964c-4.099 10.436-15.708 15.971-26.143 11.869-54.085-21.372-108.175-26.302-164.097 8.61-85.485 53.368-103.254 149.393-50.639 233.67 52.614 84.277 147.15 111.217 232.635 57.849 50.995-31.836 76.504-79.269 82.439-143.248 1.143-11.33 10.598-20.315 22.173-19.323l96.578 7.174c10.77.807 19.61 10.019 19.2 20.888-4.81 101.976-58.381 193.299-148.299 249.435-150.522 93.97-337.137 54.99-430.212-94.092"/></g><defs><filter id="a" width="1239.74" height="1227.13" x="118.438" y="78.17" color-interpolation-filters="sRGB" filterUnits="userSpaceOnUse"><feFlood flood-opacity="0" result="BackgroundImageFix"/><feBlend in="SourceGraphic" in2="BackgroundImageFix" result="shape"/><feGaussianBlur result="effect1_foregroundBlur_160_172" stdDeviation="40"/></filter><filter id="b" width="959.477" height="950.135" x="249.283" y="222.124" color-interpolation-filters="sRGB" filterUnits="userSpaceOnUse"><feFlood flood-opacity="0" result="BackgroundImageFix"/><feBlend in="SourceGraphic" in2="BackgroundImageFix" result="shape"/><feGaussianBlur result="effect1_foregroundBlur_160_172" stdDeviation="40"/></filter><filter id="c" width="786.359" height="779.04" x="330.106" y="311.043" color-interpolation-filters="sRGB" filterUnits="userSpaceOnUse"><feFlood flood-opacity="0" result="BackgroundImageFix"/><feBlend in="SourceGraphic" in2="BackgroundImageFix" result="shape"/><feGaussianBlur result="effect1_foregroundBlur_160_172" stdDeviation="40"/></filter></defs></svg>

<svg width="1405" height="1426" viewBox="0 0 1405 1426" fill="none" xmlns="http://www.w3.org/2000/svg">
<g id="logo-vector">
<g id="logo-outside" filter="url(#filter0_f_160_172)">
<path d="M280.895 975.399C120.183 717.974 201.873 400.723 460.923 238.997C606.16 148.325 798.498 132.152 956.255 199.555C973.819 206.891 981.401 227.543 974.495 244.842L912.449 401.65C905.384 419.639 885.372 429.18 867.383 422.11C774.15 385.267 680.906 376.769 584.506 436.952C437.145 528.95 406.514 694.482 497.212 839.762C587.911 985.042 750.877 1031.48 898.238 939.484C986.145 884.604 1030.12 802.838 1040.35 692.547C1042.32 673.016 1058.62 657.527 1078.57 659.238L1245.05 671.605C1263.63 672.996 1278.85 688.877 1278.16 707.613C1269.87 883.403 1177.52 1040.83 1022.51 1137.6C763.036 1299.59 441.341 1232.4 280.895 975.399Z" fill="#D53DFB" fill-opacity="0.2"/>
</g>
<g id="logo-middle" filter="url(#filter1_f_160_172)">
<path d="M390.337 907.228C271.341 716.621 331.826 481.718 523.635 361.971C631.174 294.835 773.587 282.859 890.396 332.767C903.401 338.199 909.015 353.49 903.901 366.299L857.96 482.404C852.729 495.724 837.912 502.789 824.592 497.554C755.559 470.274 686.519 463.982 615.141 508.543C506.03 576.661 483.349 699.227 550.506 806.797C617.662 914.367 738.327 948.753 847.438 880.635C912.527 839.999 945.087 779.457 952.662 697.795C954.121 683.333 966.19 671.864 980.964 673.131L1104.23 682.288C1117.99 683.318 1129.26 695.077 1128.74 708.95C1122.6 839.111 1054.22 955.673 939.454 1027.33C747.33 1147.27 509.137 1097.52 390.337 907.228Z" fill="#2E98A4" fill-opacity="0.5"/>
</g>
<g id="logo-inside" filter="url(#filter2_f_160_172)">
<path d="M457.939 865.118C364.71 715.786 412.098 531.748 562.373 437.931C646.626 385.332 758.201 375.95 849.715 415.051C859.904 419.306 864.302 431.287 860.296 441.322L824.304 532.286C820.205 542.722 808.596 548.257 798.161 544.155C744.076 522.783 689.986 517.853 634.064 552.765C548.579 606.133 530.81 702.158 583.425 786.435C636.039 870.712 730.575 897.652 816.06 844.284C867.055 812.448 892.564 765.015 898.499 701.036C899.642 689.706 909.097 680.721 920.672 681.713L1017.25 688.887C1028.02 689.694 1036.86 698.906 1036.45 709.775C1031.64 811.751 978.069 903.074 888.151 959.21C737.629 1053.18 551.014 1014.2 457.939 865.118Z" fill="#F8FFAA" fill-opacity="0.3"/>
</g>
</g>
<defs>
<filter id="filter0_f_160_172" x="118.438" y="78.1696" width="1239.74" height="1227.13" filterUnits="userSpaceOnUse" color-interpolation-filters="sRGB">
<feFlood flood-opacity="0" result="BackgroundImageFix"/>
<feBlend mode="normal" in="SourceGraphic" in2="BackgroundImageFix" result="shape"/>
<feGaussianBlur stdDeviation="40" result="effect1_foregroundBlur_160_172"/>
</filter>
<filter id="filter1_f_160_172" x="249.283" y="222.124" width="959.477" height="950.135" filterUnits="userSpaceOnUse" color-interpolation-filters="sRGB">
<feFlood flood-opacity="0" result="BackgroundImageFix"/>
<feBlend mode="normal" in="SourceGraphic" in2="BackgroundImageFix" result="shape"/>
<feGaussianBlur stdDeviation="40" result="effect1_foregroundBlur_160_172"/>
</filter>
<filter id="filter2_f_160_172" x="330.106" y="311.043" width="786.359" height="779.04" filterUnits="userSpaceOnUse" color-interpolation-filters="sRGB">
<feFlood flood-opacity="0" result="BackgroundImageFix"/>
<feBlend mode="normal" in="SourceGraphic" in2="BackgroundImageFix" result="shape"/>
<feGaussianBlur stdDeviation="40" result="effect1_foregroundBlur_160_172"/>
</filter>
</defs>
</svg>
